X:0024
T:Carlen is your Daughter Ready.
N:distantly related to Simon Brodie?
M:2/4
L:1/8
Q:1/4=132
I: :: ::
Z:Jack Campin * www.campin.me.uk * 2009
K:A Mixolydian
A2ef|eAcA|B2  Gg       |BGdB |
A2ef|eAcA|BE  E/E/E    |GABG:|
Aaaa|caca|Bg``gg       |dgBG |
Acae|cea2|gg (a/g/f/e/)|dgBG:|

